!!!!SEGMENT:09Souban_c.krn
!!!OTL: 双ばん
!!!OPR:Eiga Banso Kyokusyu,jidai-geki,zenpen
!!!YOY:1929
!!!ONB:Rantou
**kern
*clefG2
*C:
*M2/4
=1
!LO:TX:a:B:t=Allegro
8r
16cc#LL
16eeJJ
8ff#L
8ggJ
=2
16cc#LL
16ee
16ff#
16eeJJ
8ccnL
16c#L
16f#JJ
=3
8f#L
8f#
8f#
8f#J
=4
8f#L
16BL
16aJJ
8bL
8ccnJ
=5
8eeL
8ff#
8ee
8ccnJ
=6
8eeL
8ff#
8gg
8eeJ
=7
8ff#L
16ff#L
16ff#JJ
8ff#
8r
=8
16ccc#LL
16ccc#
16ccc#
16ccc#JJ
8bbL
16aaL
16aaJJ
=9
16ff#LL
16ff#
16ff#
16ff#JJ
8ff#
8r
=10
16ccc#LL
16ccc#
16ccc#
16ccc#JJ
8bbL
16aaL
16aaJJ
=11
16ff#LL
16ff#
16ff#
16ff#JJ
8ff#L
8ff#J
=12
8eeL
8b
8ee
8ff#J
=13
8f#L
8B
8e
8f#J
=14
8eeL
8ff#J
16ggLL
16ff#
16f#
16eeJJ
=15
8ff#L
8ff#J
4r
=16
16ff#LL
16ff#J
8ff#J
16ff#LL
16ff#J
8ff#J
=17
16ff#LL
16ff#J
8ff#J
16eeLL
16eeJ
8eeJ
=18
8cc#L
16cc#L
16cc#JJ
8cc#L
16cc#L
16cc#JJ
=19
8cc#L
16cc#L
16cc#JJ
8cc#L
8cc#J
=20
8c#L
8c#J
8cc#L
8cc#J
=21
8bL
16BL
16aJJ
8bL
8ccnJ
=22
8eeL
16ff#L
16eeJJ
16BLL
16ccn
16cc
16ccJJ
=23
8bL
8bJ
4r
==
*-
!!!ENC: Yukiko Yoden
!!!END: 2023/06/11
